static/images/logos/spendflo.svg

<svg width="151" height="37" viewBox="0 0 151 37" fill="none" xmlns="http://www.w3.org/2000/svg">
<path d="M0.374603 8.2797C0.374603 6.66198 0.792884 5.22942 1.62944 3.99177C2.466 2.75411 3.62357 1.77958 5.10214 1.08767C6.58071 0.395753 8.29275 0.0449219 10.2382 0.0449219C12.1837 0.0449219 13.7304 0.376262 15.1117 1.0292C16.493 1.69188 17.563 2.62742 18.3315 3.83584C19.0999 5.04426 19.5085 6.49631 19.5669 8.16275H14.7129C14.6642 6.97383 14.2362 6.03828 13.4288 5.3756C12.6215 4.70317 11.532 4.37183 10.1701 4.37183C8.68185 4.37183 7.48537 4.70317 6.59044 5.3756C5.69552 6.04802 5.24806 6.96408 5.24806 8.13351C5.24806 9.11779 5.52042 9.89741 6.06516 10.4724C6.6099 11.0376 7.46591 11.4664 8.62348 11.749L12.9814 12.7333C15.3549 13.24 17.1253 14.1074 18.2926 15.3353C19.4501 16.5632 20.0338 18.2199 20.0338 20.2956C20.0338 21.9913 19.6155 23.4824 18.7789 24.7785C17.9424 26.0649 16.7654 27.0589 15.2381 27.7605C13.7109 28.4525 11.9211 28.8033 9.87832 28.8033C7.83556 28.8033 6.23053 28.4719 4.76168 27.7995C3.29284 27.1271 2.15473 26.1818 1.32789 24.9734C0.510787 23.7552 0.0730513 22.3324 0.0244141 20.6855H4.87841C4.90759 21.8549 5.36478 22.7709 6.25971 23.4434C7.15463 24.1158 8.38029 24.4471 9.91723 24.4471C11.4542 24.4471 12.816 24.1158 13.7693 23.4434C14.7129 22.7709 15.1895 21.8841 15.1895 20.7634C15.1895 19.7986 14.9366 19.0385 14.4308 18.4635C13.9249 17.8983 13.1078 17.4987 11.9697 17.2649L7.57292 16.2806C5.21887 15.7738 3.43875 14.8578 2.23255 13.5227C1.01661 12.1973 0.413513 10.4529 0.413513 8.29918L0.374603 8.2797Z" fill="black"/>
<path d="M23.7207 36.9991V9.54665H28.0008L28.3023 12.3923C28.8568 11.3008 29.7128 10.4627 30.8801 9.86825C32.0377 9.27378 33.3217 8.97168 34.7127 8.97168C36.5026 8.97168 38.059 9.38098 39.3527 10.1898C40.6562 10.9987 41.6678 12.1292 42.4071 13.5715C43.1464 15.0138 43.5063 16.7192 43.5063 18.6975C43.5063 20.6758 43.1659 22.3812 42.485 23.9015C41.804 25.4217 40.8118 26.6204 39.5083 27.4877C38.2049 28.3648 36.6193 28.7936 34.7516 28.7936C33.3606 28.7936 32.096 28.5305 30.9385 27.9945C29.7906 27.4585 28.9249 26.7276 28.3412 25.7921V36.9991H23.7207ZM28.3802 18.9216C28.3802 20.0326 28.5942 21.0266 29.0222 21.8842C29.4502 22.7418 30.063 23.4239 30.8606 23.9112C31.6583 24.4082 32.5824 24.6519 33.6427 24.6519C34.703 24.6519 35.666 24.4082 36.4442 23.9112C37.2224 23.4142 37.8255 22.7418 38.2243 21.8842C38.6329 21.0266 38.8274 20.0326 38.8274 18.9216C38.8274 17.8107 38.6231 16.8166 38.2243 15.9591C37.8158 15.1015 37.2224 14.4193 36.4442 13.932C35.6563 13.435 34.7224 13.1914 33.6427 13.1914C32.563 13.1914 31.6486 13.435 30.8606 13.9125C30.063 14.3901 29.4502 15.0625 29.0222 15.9298C28.5942 16.7874 28.3802 17.7912 28.3802 18.9314V18.9216Z" fill="black"/>
<path d="M55.5585 28.7936C53.7103 28.7936 52.0761 28.3648 50.6461 27.517C49.2162 26.6691 48.0975 25.4997 47.2901 24.0184C46.4828 22.5371 46.0742 20.8317 46.0742 18.9119C46.0742 16.992 46.4633 15.2379 47.2512 13.7469C48.0294 12.2558 49.1384 11.0864 50.5488 10.2385C51.9593 9.39071 53.5838 8.96191 55.4028 8.96191C57.2219 8.96191 58.9242 9.36147 60.2957 10.1606C61.6576 10.9597 62.7179 12.0707 63.4572 13.4837C64.2062 14.9065 64.5758 16.6022 64.5758 18.5708V19.9741L48.5061 20.0131L48.5839 17.0505H59.9942C59.9942 15.7641 59.5856 14.7214 58.7588 13.932C57.9417 13.1426 56.8328 12.7528 55.4418 12.7528C54.3523 12.7528 53.4379 12.977 52.6889 13.435C51.9399 13.893 51.3854 14.5752 51.006 15.4815C50.6267 16.3878 50.4418 17.5085 50.4418 18.8242C50.4418 20.8512 50.8796 22.3812 51.7453 23.4239C52.6208 24.4667 53.9145 24.9832 55.6266 24.9832C56.8911 24.9832 57.932 24.7395 58.7588 24.262C59.5759 23.7845 60.1207 23.1023 60.3736 22.2155H64.6536C64.2451 24.262 63.2432 25.87 61.6381 27.0394C60.0331 28.2089 58.0001 28.7838 55.5488 28.7838L55.5585 28.7936Z" fill="black"/>
<path d="M72.9218 28.2966H68.3013V9.53689H72.5814L72.9607 11.9635C73.5444 11.0279 74.3712 10.297 75.4412 9.76103C76.5112 9.22504 77.6883 8.96191 78.9431 8.96191C81.2971 8.96191 83.0675 9.65383 84.264 11.0474C85.4605 12.441 86.0636 14.3413 86.0636 16.7484V28.2966H81.4431V17.8496C81.4431 16.2806 81.0929 15.1112 80.3828 14.3413C79.6727 13.5714 78.7194 13.1816 77.5034 13.1816C76.0638 13.1816 74.9354 13.6397 74.128 14.546C73.3206 15.4523 72.9121 16.6704 72.9121 18.1907V28.2966H72.9218Z" fill="black"/>
<path d="M98.3205 28.7935C96.5014 28.7935 94.945 28.3842 93.6416 27.5559C92.3381 26.7373 91.3264 25.5873 90.6066 24.1158C89.8868 22.6443 89.5269 20.9388 89.5269 18.9898C89.5269 17.0407 89.8868 15.3158 90.6066 13.8053C91.3264 12.2948 92.3673 11.1156 93.7388 10.258C95.1007 9.4004 96.7252 8.96186 98.5928 8.96186C99.906 8.96186 101.103 9.22499 102.192 9.74149C103.281 10.258 104.108 10.9889 104.692 11.9244V0.0449219H109.283V28.2965H105.042L104.741 25.3729C104.186 26.4352 103.33 27.2733 102.182 27.8775C101.034 28.4817 99.7504 28.7935 98.3302 28.7935H98.3205ZM99.3418 24.5348C100.431 24.5348 101.365 24.301 102.143 23.8332C102.922 23.3654 103.544 22.693 103.982 21.8159C104.42 20.9388 104.643 19.9448 104.643 18.8338C104.643 17.7229 104.42 16.6996 103.982 15.8518C103.534 15.0039 102.922 14.3315 102.143 13.8345C101.355 13.3375 100.422 13.0939 99.3418 13.0939C98.2621 13.0939 97.3575 13.3375 96.5793 13.8345C95.7913 14.3315 95.198 15.0039 94.7797 15.8615C94.3614 16.7191 94.1571 17.7131 94.1571 18.8241C94.1571 19.9351 94.3614 20.9291 94.7797 21.7867C95.198 22.6443 95.8011 23.3167 96.5793 23.8039C97.3575 24.2815 98.2816 24.5251 99.3418 24.5251V24.5348Z" fill="black"/>
<path d="M125.382 9.7611H117.357V5.97018C117.357 4.87871 117.542 4.06985 117.902 3.57284C118.242 3.10507 118.933 2.86143 119.964 2.86143H121.822V0.746704L121.579 0.697978C121.306 0.639506 121.005 0.61027 120.635 0.600525C120.295 0.59078 119.964 0.581035 119.662 0.581035C118.865 0.581035 118.096 0.756449 117.406 1.10728C116.696 1.46786 116.112 2.05257 115.664 2.84194C115.227 3.63131 115.003 4.6838 115.003 5.97018V9.7611H112.163V11.8953H115.003V28.6085H117.357V11.8953H125.382V28.6085H127.736V0.571289H125.382V9.7611Z" fill="#E92589"/>
<path d="M149.117 14.1174C148.31 12.6459 147.201 11.4667 145.81 10.6091C144.419 9.75153 142.794 9.31299 141.004 9.31299C139.215 9.31299 137.629 9.75153 136.218 10.6091C134.818 11.4667 133.689 12.6556 132.892 14.1272C132.084 15.5987 131.676 17.3041 131.676 19.1947C131.676 21.0853 132.084 22.7615 132.892 24.2428C133.699 25.7241 134.818 26.913 136.228 27.7803C137.639 28.6379 139.244 29.0764 141.014 29.0764C142.785 29.0764 144.428 28.6379 145.819 27.7803C147.211 26.9227 148.329 25.7338 149.127 24.2525C149.934 22.7712 150.343 21.0756 150.343 19.2045C150.343 17.3334 149.934 15.6084 149.127 14.1369L149.117 14.1174ZM141.004 26.8545C139.652 26.8545 138.446 26.5232 137.415 25.88C136.384 25.2271 135.557 24.3207 134.964 23.1708C134.37 22.0208 134.069 20.676 134.069 19.1947C134.069 17.7134 134.37 16.3393 134.964 15.1991C135.557 14.0687 136.374 13.1624 137.415 12.5094C138.446 11.8565 139.652 11.5349 141.004 11.5349C142.357 11.5349 143.563 11.8663 144.594 12.5094C145.625 13.1624 146.452 14.0687 147.045 15.1991C147.639 16.3393 147.94 17.6842 147.94 19.1947C147.94 20.7052 147.639 22.0208 147.045 23.1708C146.452 24.3207 145.635 25.2271 144.594 25.88C143.563 26.5329 142.357 26.8545 141.004 26.8545Z" fill="#E92589"/>
</svg>

<svg xmlns="http://www.w3.org/2000/svg" width="151" height="37" fill="none" viewBox="0 0 151 37"><path fill="#000" d="M.375 8.28q0-2.429 1.254-4.288c.837-1.238 1.995-2.212 3.473-2.904C6.581.396 8.292.045 10.238.045s3.492.331 4.874.984c1.381.663 2.451 1.598 3.22 2.807.768 1.208 1.177 2.66 1.235 4.327h-4.854c-.049-1.19-.477-2.125-1.284-2.787-.808-.673-1.897-1.004-3.259-1.004-1.488 0-2.685.331-3.58 1.004-.894.672-1.342 1.588-1.342 2.758q0 1.476.817 2.338.82.85 2.558 1.277l4.358.984q3.56.76 5.312 2.602c1.157 1.228 1.74 2.885 1.74 4.96 0 1.696-.418 3.187-1.254 4.483-.837 1.287-2.014 2.28-3.54 2.983-1.528.692-3.318 1.042-5.36 1.042S6.23 28.472 4.761 27.8c-1.47-.672-2.607-1.617-3.434-2.826C.51 23.755.073 22.333.024 20.686h4.854c.03 1.169.487 2.085 1.382 2.757s2.12 1.004 3.657 1.004 2.899-.331 3.852-1.004c.944-.672 1.42-1.559 1.42-2.68 0-.964-.252-1.725-.758-2.3-.506-.565-1.323-.964-2.461-1.198l-4.397-.984c-2.354-.507-4.134-1.423-5.34-2.758Q.41 11.532.413 8.299zM23.72 37V9.546H28l.302 2.845c.555-1.091 1.41-1.93 2.578-2.524 1.158-.594 2.442-.896 3.833-.896 1.79 0 3.346.409 4.64 1.218 1.303.809 2.315 1.94 3.054 3.382.74 1.442 1.1 3.147 1.1 5.126 0 1.978-.341 3.683-1.022 5.203s-1.673 2.72-2.977 3.587c-1.303.877-2.889 1.306-4.756 1.306-1.391 0-2.656-.264-3.814-.8-1.147-.535-2.013-1.266-2.597-2.202V37zm4.66-18.078c0 1.11.214 2.105.642 2.962a4.88 4.88 0 0 0 1.839 2.027c.797.497 1.721.74 2.782.74s2.023-.243 2.801-.74a4.74 4.74 0 0 0 1.78-2.027c.409-.857.603-1.851.603-2.962s-.204-2.105-.603-2.963c-.408-.857-1.002-1.54-1.78-2.027-.788-.497-1.722-.74-2.801-.74s-1.994.243-2.782.72a4.74 4.74 0 0 0-1.839 2.018c-.428.857-.642 1.861-.642 3.001zM55.559 28.794c-1.849 0-3.483-.43-4.913-1.277a9 9 0 0 1-3.356-3.499c-.807-1.48-1.216-3.186-1.216-5.106s.39-3.674 1.177-5.165a8.74 8.74 0 0 1 3.298-3.508c1.41-.848 3.035-1.277 4.854-1.277s3.521.4 4.893 1.199a8.2 8.2 0 0 1 3.161 3.323c.75 1.422 1.119 3.118 1.119 5.087v1.403l-16.07.04.078-2.963h11.41c0-1.287-.408-2.33-1.235-3.119-.817-.79-1.926-1.18-3.317-1.18-1.09 0-2.004.225-2.753.683s-1.304 1.14-1.683 2.047c-.38.906-.564 2.027-.564 3.342 0 2.027.438 3.557 1.303 4.6.876 1.043 2.17 1.56 3.882 1.56 1.264 0 2.305-.245 3.132-.722.817-.477 1.362-1.16 1.615-2.047h4.28c-.409 2.047-1.41 3.655-3.016 4.824-1.605 1.17-3.638 1.745-6.09 1.745zM72.922 28.297h-4.62V9.537h4.28l.379 2.426c.583-.935 1.41-1.666 2.48-2.202s2.247-.8 3.502-.8c2.354 0 4.124.693 5.321 2.086 1.197 1.394 1.8 3.294 1.8 5.701v11.549h-4.62V17.85c0-1.57-.351-2.739-1.061-3.509s-1.664-1.16-2.88-1.16c-1.44 0-2.568.459-3.375 1.365s-1.216 2.124-1.216 3.645v10.106zM98.32 28.794c-1.819 0-3.375-.41-4.678-1.238-1.304-.819-2.316-1.969-3.035-3.44-.72-1.472-1.08-3.177-1.08-5.126s.36-3.674 1.08-5.185 1.76-2.69 3.132-3.547c1.362-.858 2.986-1.296 4.854-1.296 1.313 0 2.51.263 3.599.78 1.089.516 1.916 1.247 2.5 2.182V.044h4.591v28.253h-4.241l-.301-2.924c-.555 1.062-1.411 1.9-2.559 2.505-1.148.604-2.432.916-3.852.916zm1.022-4.26q1.634 0 2.801-.7c.779-.469 1.401-1.141 1.839-2.018q.659-1.315.661-2.982c0-1.111-.223-2.134-.661-2.982a5.25 5.25 0 0 0-1.839-2.017c-.788-.498-1.721-.741-2.801-.741s-1.984.244-2.763.74a4.84 4.84 0 0 0-1.8 2.027c-.418.858-.622 1.852-.622 2.963s.204 2.105.623 2.963a4.83 4.83 0 0 0 1.8 2.017c.778.478 1.702.721 2.762.721z"/><path fill="#e92589" d="M125.382 9.761h-8.025v-3.79c0-1.092.185-1.901.545-2.398.34-.468 1.031-.712 2.062-.712h1.858V.747l-.243-.049a5 5 0 0 0-.944-.097c-.34-.01-.671-.02-.973-.02-.797 0-1.566.175-2.256.526-.71.36-1.294.946-1.742 1.735-.437.79-.661 1.842-.661 3.128v3.791h-2.84v2.134h2.84V28.61h2.354V11.895h8.025V28.61h2.354V.57h-2.354zM149.117 14.117c-.807-1.471-1.916-2.65-3.307-3.508-1.391-.857-3.016-1.296-4.806-1.296-1.789 0-3.375.439-4.786 1.296a9.25 9.25 0 0 0-3.326 3.518c-.808 1.472-1.216 3.177-1.216 5.068s.408 3.567 1.216 5.048a9.3 9.3 0 0 0 3.336 3.537c1.411.858 3.016 1.296 4.786 1.296 1.771 0 3.414-.438 4.805-1.296a9.2 9.2 0 0 0 3.308-3.527c.807-1.482 1.216-3.177 1.216-5.049 0-1.87-.409-3.596-1.216-5.067zm-8.113 12.738c-1.352 0-2.558-.332-3.589-.975-1.031-.653-1.858-1.56-2.451-2.71-.594-1.15-.895-2.494-.895-3.975 0-1.482.301-2.856.895-3.996.593-1.13 1.41-2.037 2.451-2.69 1.031-.652 2.237-.974 3.589-.974 1.353 0 2.559.331 3.59.974 1.031.653 1.858 1.56 2.451 2.69.594 1.14.895 2.485.895 3.996 0 1.51-.301 2.826-.895 3.976-.593 1.15-1.41 2.056-2.451 2.709-1.031.653-2.237.975-3.59.975"/></svg>
